!!!OTL:	op18_no1_mvmnt2_all
**kern	**kern	**kern	**kern	**dynam
*part4	*part3	*part2	*part1	*part1
*staff4	*staff3	*staff2	*staff1	*
*I"Cello	*I"Viola	*I"Violin II	*I"Violin I	*
*I'Vc.	*I'Vla.	*I'Vln. II	*I'Vln. I	*
*clefF4	*clefC3	*clefG2	*clefG2	*
*k[b-]	*k[b-]	*k[b-]	*k[b-]	*
*d:	*d:	*d:	*d:	*
*M9/8	*M9/8	*M9/8	*M9/8	*
=1	=1	=1	=1	=1
(>8D'L	(<8F'L	(<8A'L	8%9r	.
8D'	8F'	8A'	.	.
8D'J)	8F'J)	8A'J)	.	.
(8F'L	(8A'L	8d'L	.	.
(>8F'	(<8A'	8d'	.	.
8F'J)	8A'J)	8d'J)	.	.
8E'L	8G'L	8c#X'L	.	.
8E'	8G'	8c#'	.	.
8E'J)	8G'J)	8c#'J)	.	.
=2	=2	=2	=2	=2
8DL	8FL	8dL	[2.a	.
8D	8F	8A	.	.
8DJ	8FJ	8AJ	.	.
8FL	8AL	8dL	.	.
8F	8A	8d	.	.
8FJ	8AJ	8dJ	.	.
8EL	8GL	8c#XL	4.a_	.
8E	8G	8c#	.	.
8EJ	8GJ	8c#J	.	.
=3	=3	=3	=3	=3
8DL	8FL	8dL	(>4.a]	.
8D	8F	8A	.	.
8DJ	8FJ	8AJ	.	.
8FL	8AL	8dL	4.dd	.
8F	8A	8d	.	.
8FJ	8AJ	8dJ	.	.
8AL	8c#XL	8AL 8e	4.ee)	.
8A	8c#	8A 8e	.	.
8AJ	8c#J	8AJ 8e	.	.
=4	=4	=4	=4	=4
8dL	8dL	8fL	[4.ff	.
8D	8F	8A	.	.
8DJ	8FJ	8AJ	.	.
8DL	8FL	8AL	(4ff]	.
8D	8F	8A	.	.
8DJ	8FJ	8AJ	16eeLL	.
.	.	.	16ddJJ)	.
8DL	8FL	8B-L	(16ddLL	.
.	.	.	32eeL	.
.	.	.	32ddJ	.
8D	8F	8B-	16cc#X	.
.	.	.	16dd	.
8DJ	8FJ	8B-J	16ff	.
.	.	.	16eeJJ)	.
=5	=5	=5	=5	=5
8EL	8GL	8B-L	(>4.dd	.
8E	8G	8B-	.	.
8EJ	8GJ	8B-J	.	.
8EL	8GL	8B-L	[4.cc#X)	.
8E	8G	8b-	.	.
8EJ	8GJ	8b-J	.	.
8EL	8GL	(8b-L	8cc#L]	.
8E	8G	8g	(16cc#L	.
.	.	.	16dd	.
8EJ	8GJ	8eJ)	16ee	.
.	.	.	16ffJJ)	.
=6	=6	=6	=6	=6
8EL	8GL	8c#XL	[4.gg	.
8E	8G	8c#	.	.
8EJ	8GJ	8c#J	.	.
8EL	8GL	8c#L	8ggL]	.
.	.	.	32qqaa/	.
8E	8G	8c#	(>16ggL	.
.	.	.	16ff#X	.
8EJ	8GJ	8c#J	16gg	.
.	.	.	16aaJJ)	.
8EL	8GL	8c#L	(4bb-	.
8E	8G	8c#	.	.
8EJ	8GJ	8c#J	8cc#X)	.
=7	=7	=7	=7	=7
8FL	8AL	(8c#XL	(>4.ee	.
8F	8A	8d)	.	.
8FJ	8AJ	8dJ	.	.
!	!	!	!	!
8FL	(<8AL	8dL	[4.dd)	.
8F	8A	8d	.	.
8FJ	8AJ	8dJ	.	.
(8FL	8AL	(8dL	(8ddL]	.
8E	8G	8c#	8ee	.
8DJ)	8FJ)	8dJ)	8ffJ)	.
=8	=8	=8	=8	=8
!LO:TX:b:Bi:t=Cresc.	!LO:TX:b:Bi:t=Cresc.	!LO:TX:b:Bi:t=Cresc.	!LO:TX:b:Bi:t=Cresc.	!
8GL	8B-L	8dL	(>4.ff	.
8GG	8B-	8d	.	.
8GGJ	8B-J	8dJ	.	.
8GGL	8B-L	8dL	[4.ee)	.
8GG	8B-	8d	.	.
8GGJ	8B-J	8dJ	.	.
8GG#XL	8BnL	8dL	(8eeL]	.
8GG#	8B	8d	8ff	.
8GG#J	8BJ	8dJ	8ddJ)	.
=9	=9	=9	=9	=9
4AA	(8EL	4c#X	4cc#X	.
.	8A)	.	.	.
8r	8A'J	8r	8r	.
8r	[4A	8r	8r	.
8C#XL	.	8aL	(8aaL	.
8EJ	(8AL]	8gJ	8ggJ	.
8DL	8B-	8fL	8ffL	.
8GG	8BnJ)	8e	8ee	.
8GG#XJ)	.	8dJ)	8ddJ)	.
=10	=10	=10	=10	=10
.	[4.E	.	.	.
(>8AAL	.	4c#X	4cc#X	.
8BB-	.	.	.	.
8GG#XJ	8EL]	8r	8r	.
8AAL	(8A'	(4a	(4aa	.
8C#X	8A'J)	.	.	.
8EJ	8AL	8g	8gg	.
8DL	8B-	8fL	8ffL	.
8GGn	8BnJ	8e	8ee	.
8GG#XJ)	.	8dJ)	8ddJ)	.
=11	=11	=11	=11	=11
.	4E	.	.	.
4AA	.	4c#X	4cc#X	.
.	8r	.	.	.
8r	4r	8r	8r	.
4r	.	4r	4r	.
.	8r	.	.	.
8r	(4.d	8r	8r	.
[4.A	.	4.f	(4.b-	.
=12	=12	=12	=12	=12
.	4c#X)	.	.	.
4A]	.	4e)	4a)	.
.	8r	.	.	.
8r	4r	8r	8r	.
4r	.	4r	4r	.
.	8r	.	.	.
8r	4.B-	8r	8r	.
4.BB-	.	4.B-	4.B-	.
=13	=13	=13	=13	=13
.	(<[4A	.	.	.
(8AAL	.	4A)	(8AL	.
8C#X	8AL]	.	8c#X	.
8EJ)	8G	8r	8eJ	.
!	!LO:TX:b:Bi:t=Cresc.	!	!	!
!LO:TX:b:Bi:t=Cresc.	!LO:TX:a:Bi:t=Cresc.	!	!	!
[4.A	8FJ	8r	8aL)	.
!	!	!LO:TX:a:Bi:t=Cresc.	!	!
.	8EL	8c#XL	(16B-L	.
.	.	.	16A	.
.	8D	8dJ	16B-	.
.	.	.	16AJJ	.
8AL]	8C#XJ)	8eL	16c#LL	.
.	.	.	16A	.
8A'	.	8f	16d	.
.	.	.	16A	.
8A'J	.	8gJ)	16e	.
.	.	.	16AJJ)	.
=14	=14	=14	=14	=14
.	(8D'L	.	.	.
.	8D'	.	.	.
*clefG2	*	*	*	*
[2.a	8D'J)	(8f'L	8dL	.
.	8FL	8f'	(8a'	.
.	8F	8f'J)	8a'J)	.
.	8FJ	8dL	(8a'L	.
.	8EL	8d	8a'	.
.	8E	8dJ	8a'J)	.
4.a]	8EJ	8gL	(8cc#X'L	.
.	.	8g	8cc#'	.
.	.	8gJ	8cc#'J)	.
=15	=15	=15	=15	=15
.	8DL	.	.	.
.	8D	.	.	.
(>4.a	8DJ	8fL	8ddL	.
.	8FL	8f	8a	.
.	8F	8fJ	8aJ	.
4.dd	8FJ	8dL	8aL	.
.	8AL	8d	8a	.
.	8A	8dJ	8aJ	.
4.ee)	8AJ	8gL	8cc#XL	.
.	.	8g	8cc#	.
.	.	8gJ	8cc#J	.
=16	=16	=16	=16	=16
.	8DL	.	.	.
.	8d	.	.	.
[2.ff	8dJ	(4.a	4dd	.
.	8dL	.	.	.
.	8d	.	8r	.
.	8dJ	4.b-	4r	.
.	8d-XL	.	.	.
.	8d-	.	8r	.
(8ffL]	8d-J	4.bn)	4r	.
8aa-X	.	.	.	.
8ggJ)	.	.	8r	.
=17	=17	=17	=17	=17
.	8CL	.	.	.
.	8C	.	.	.
[4.ff	8CJ	8ccL	[2.bb-	.
.	8CL	8g	.	.
.	8C	8gJ	.	.
(>8ffL]	8CJ	8gL	.	.
8ee	8CL	8g	.	.
8dd-XJ	8C	8gJ	.	.
8ccL	8CJ	8gL	(8bb-L]	.
8b-	.	8ee	8ddd-X	.
8gJ)	.	8eeJ	8cccJ)	.
*clefF4	*	*	*	*
=18	=18	=18	=18	=18
.	8cL	.	.	.
.	8c	.	.	.
(>4.G-X	8cJ	[2.ee-X	(>4.bb-	.
.	8cL	.	.	.
.	(>8c	.	.	.
8FL)	8cJ	.	8aaL	.
8FF	8cL	.	8gg-X	.
8FFJ	8e-X)	.	8ffJ	.
8FFL	8cJ	(8ee-L]	8ee-XL	.
8FF	.	8gg-X	8cc	.
8FFJ	.	8ffJ)	8aJ)	.
=19	=19	=19	=19	=19
!	!LO:TX:b:Bi:t=Cresc.	!	!	!
.	[2F	.	.	.
!LO:TX:b:Bi:t=Cresc.	!	!LO:TX:b:Bi:t=Cresc.	!LO:TX:b:Bi:t=Cresc.	!
8BB-L	.	4.ee-X	4.a-X	.
8BB-	.	.	.	.
8BB-J	(8FL]	.	.	.
8BB-L	8d)	[4dd	[4aa-X	.
8BB-	8dJ	.	.	.
8BB-J	.	8ddL]	(>16aa-LL]	.
.	.	.	16gg	.
8BBnL	.	8A-X 8f	16bb-	.
.	.	.	16aa-	.
8BB	.	8A-J 8f	16gg	.
.	.	.	16ffJJ)	.
8BBJ	.	.	.	.
=20	=20	=20	=20	=20
.	4c	.	.	.
.	4r	.	.	.
.	.	8G 8e	4ee	.
4C	.	(8bnL	.	.
.	.	8ccJ	8r	.
8r	.	8f#XL	4r	.
4r	.	8g	.	.
.	.	8d#XJ	8r	.
8r	.	8eL	4r	.
4r	.	8Bn	.	.
.	.	8cJ)	8r	.
8r	.	.	.	.
=21	=21	=21	=21	=21
.	4r	.	.	.
.	8r	.	.	.
.	8r	.	.	.
.	8eL	.	.	.
.	8fJ	.	.	.
.	8gL	.	.	.
.	8a-X)	.	.	.
.	8fJ	[2.d-X	8r	.
8%9r	.	.	(8eeL	.
.	.	.	8ffJ)	pp
.	.	.	(8a	.
.	.	.	[4b-)	.
.	.	8d-L]	8b-L]	.
.	.	(8d-'	(8bn'	.
.	.	8d-'J)	8b'J)	.
=22	=22	=22	=22	=22
.	4e	.	.	.
.	8r	.	.	.
.	4r	.	.	.
.	8r	.	.	.
.	4r	.	.	.
.	8r	4c	4cc	.
8CL	.	.	.	.
(8Bn	.	8r	8r	.
8cJ	.	4r	4r	.
8F#XL	.	.	.	.
8G	.	8r	8r	.
8D#XJ	.	4r	4r	.
8EL	.	.	.	.
8BBn	.	8r	8r	.
8CJ)	.	.	.	.
=23	=23	=23	=23	=23
.	(8CL	.	.	.
.	8E	.	.	.
.	8GJ)	.	.	.
.	(8CL	.	.	.
.	8E	.	.	.
.	8GJ)	.	.	.
.	(8CL	.	.	.
.	8E	.	.	.
.	8GJ)	4r	8r	.
[2.BB-	.	.	(8bbnL	.
.	.	8r	8cccJ	.
.	.	4ryy	8ff#XL	.
.	.	.	8gg	.
.	.	8ryy	8dd#XJ	.
.	.	16r	8eeL	.
.	.	(16cLL	.	.
4.BB-]	.	16Bn	8bn	.
.	.	16c	.	.
.	.	16e	8ccJ)	.
.	.	16gJJ	.	.
=24	=24	=24	=24	=24
.	(8CL	.	.	.
.	8F	.	.	.
.	8AJ)	.	.	.
.	(8CL	.	.	.
.	8F	.	.	.
.	8AJ)	.	.	.
.	(8CL	.	.	.
.	8F	.	.	.
.	8AJ)	4a)	8r	.
(<2.AA	.	.	(8bbnL	.
.	.	8r	8cccJ	.
.	.	4r	8gg#XL	.
.	.	.	8aa	.
.	.	8r	8eeJ	.
.	.	16r	8ffL	.
.	.	16cLL	.	.
4.AA)	.	16Bn	8bn	.
.	.	16c	.	.
.	.	16f	8ccJ)	.
.	.	16aJJ	.	.
=25	=25	=25	=25	=25
.	(8CL	.	.	.
!	!LO:TX:b:Bi:t=Cresc.	!	!	!
.	8G	.	.	.
.	8B-J)	.	.	.
.	(8CL	.	.	.
.	8G	.	.	.
.	8B-J)	.	.	.
.	(8CL	.	.	.
.	8G	.	.	.
.	8B-J)	4b-)	8r	.
!LO:TX:b:Bi:t=Cresc.	!	!	!	!
(<2.EE	.	.	(8aaL	.
!	!	!	!LO:TX:b:Bi:t=Cresc.	!
.	.	8r	8bb-J	.
.	.	4r	8ggL	.
.	.	.	8ee	.
.	.	8r	8b-J	.
.	.	16r	8gL	.
.	.	(16eLL	.	.
!	!	!LO:TX:b:Bi:t=Cresc.	!	!
4.CC)	.	16cc	8e	.
.	.	16b-	.	.
.	.	16cc	8B-J)	.
.	.	16b-JJ)	.	.
=26	=26	=26	=26	=26
.	(8EL	.	.	.
.	8c)	.	.	.
.	8cJ	.	.	.
.	(8gL	.	.	.
.	8c)	.	.	.
.	8cJ	.	.	.
.	(8fL	.	.	.
.	8c)	.	.	.
.	8cJ	(>4.cc	4A	.
4FF	.	.	.	.
.	.	.	8r	.
8r	.	4.b-	4r	.
4r	.	.	.	.
.	.	.	8r	.
8r	.	8a	4r	.
.	.	32qqb-/	.	.
4r	.	16aLL	.	.
.	.	16g	.	.
.	.	16a	8r	.
.	.	16b-JJ)	.	.
8r	.	.	.	.
=27	=27	=27	=27	=27
.	(8eL	.	.	.
.	8c)	.	.	.
.	8cJ	.	.	.
.	(8fL	.	.	.
.	8c)	.	.	.
.	8cJ	.	.	.
.	(8gL	.	.	.
.	8c)	.	.	.
.	8cJ	4g	(>4.ddd	.
(>4.B-	.	.	.	.
.	.	8r	.	.
.	.	4r	4.ccc	.
4.A	.	.	.	.
.	.	8r	.	.
.	.	.	8qqccc/	.
.	.	4r	8bb-L	.
4.E)	.	.	16bb-L	.
.	.	.	16aa	.
.	.	8r	16bb-	.
.	.	.	16cccJJ)	.
=28	=28	=28	=28	=28
.	(8aL	.	.	.
.	8c)	.	.	.
.	8cJ	.	.	.
.	(8eL	.	.	.
.	8c)	.	.	.
.	8cJ	.	.	.
.	(8fL	.	.	.
.	8c)	.	.	.
.	8cJ	(>8ccL	4aa	.
4F	.	16ffL	.	.
.	.	16ee	.	.
.	.	(>16dd	8r	.
.	.	16ccJJ)	.	.
8r	.	16ccLL	4r	.
.	.	16b-	.	.
4r	.	16gg	.	.
.	.	16ee	.	.
.	.	16cc	8r	.
.	.	16b-JJ)	.	.
8r	.	(16b-LL	4r	.
.	.	16a	.	.
4r	.	16ff	.	.
.	.	16cc	.	.
.	.	16b-	8r	.
.	.	16aJJ)	.	.
8r	.	.	.	.
=29	=29	=29	=29	=29
.	(4.e	.	.	.
.	4.f	.	.	.
.	4.g)	.	.	.
.	.	(8gL	(>8dddL	.
(>4.B-	.	8c)	16gggL	.
.	.	.	16fff	.
.	.	8c'J	16eee	.
.	.	.	16dddJJ)	.
.	.	(8aL	(16dddLL	.
.	.	.	16ccc	.
4.A	.	8c)	16fff	.
.	.	.	16eee	.
.	.	8c'J	16ddd	.
.	.	.	16cccJJ)	.
.	.	(8b-L	(16cccLL	.
.	.	.	16bb-	.
4.E)	.	8c)	16ggg	.
.	.	.	16eee	.
.	.	8c'J	16ccc	.
.	.	.	16bb-JJ)	.
=30	=30	=30	=30	=30
.	4f	.	.	.
.	8r	.	.	.
.	4r	.	.	.
.	8r	.	.	.
.	4r	.	.	.
.	8r	4c 4a	(>16aaLL	.
.	.	.	16gg#X	.
4F	.	.	16aa	.
.	.	.	16ggn	.
.	.	4r	16ff	.
.	.	.	16eeJJ	.
8r	.	.	16ddLL	.
.	.	.	16cc#X	.
4r	.	4r	16dd	.
.	.	.	16ccn	.
.	.	.	16b-	.
.	.	.	16aJJ	.
8r	.	.	16gLL	.
.	.	.	16f#X	.
4r	.	.	16g	.
.	.	.	16fn	.
.	.	.	16e)	.
.	.	.	16dJJ	.
8r	.	.	.	.
=31	=31	=31	=31	=31
.	[4.A	.	.	.
.	(<4A]	.	.	.
.	16dLL	4r	.	.
.	16cJJ	.	.	.
.	16B-LL	.	.	.
.	16A	.	.	.
.	16B-	8r	.	.
.	16A	.	.	.
.	16G	4d	(<4c#X	.
.	16FJJ)	.	.	.
(<16ALL	.	.	.	.
16G#X	.	.	.	.
16A	.	16eLL	16dLL	.
16Gn	.	16f#XJJ)	16eJJ)	.
16F	.	[4.g	(4f	.
16EJJ	.	.	.	.
16DLL	.	.	.	.
16C#X	.	.	.	.
16D	.	.	16gLL	.
16Cn	.	.	16aJJ)	.
16BB-	.	.	[4.b-	.
16AAJJ)	.	.	.	.
16GGLL	.	.	.	.
16FF#X	.	.	.	.
16GG	.	.	.	.
16FFn	.	.	.	.
16EE	.	.	.	.
16DDJJ	.	.	.	.
=32	=32	=32	=32	=32
!	!LO:TX:b:Bi:t=Cresc.	!	!	!
.	(<16ELL	.	.	.
.	16F	.	.	.
.	16G	.	.	.
.	16F	.	.	.
.	16E	.	.	.
.	16FJJ	.	.	.
.	16GLL	.	.	.
.	16F	.	.	.
.	16E	.	.	.
.	16F	.	.	.
!	!	!LO:TX:b:Bi:t=Cresc.	!	!
.	16G	(<16gLL_	.	.
.	16EJJ	16f	.	.
.	16FLL	16e	.	.
.	16E	16f	.	.
.	16F	16g	.	.
.	16G	16fJJ	.	.
!	!	!	!LO:TX:b:Bi:t=Cresc.	!
.	16A-X	16eLL	(2.b-]	.
.	16FJJ)	16f	.	.
!LO:TX:b:Bi:t=Cresc.	!	!	!	!
(4.CC	.	16g	.	.
.	.	16f	.	.
.	.	16e	.	.
.	.	16gJJ	.	.
.	.	4.f)	.	.
4.C	.	.	.	.
.	.	.	4.a-X)	.
4.D-X)	.	.	.	.
=33	=33	=33	=33	=33
.	(<4.D-X	.	.	.
.	16FLL	.	.	.
.	16E	.	.	.
!	!	!	!	!
.	16F	.	.	.
.	16E	.	.	.
.	16F	(<16d-XLL	.	.
.	16EJJ)	16c	.	.
.	(4c	16d-	.	.
.	.	16c	.	.
.	.	16d-	.	.
.	.	16cJJ)	.	.
.	8c	(<4.Bn	(<4.g-X	.
(4.BB-	.	.	.	.
.	.	4.B-X	[4.f)	.
4.D-X	.	.	.	.
.	.	.	(8fL]	>
4.C)	.	.	8gn	.
.	.	.	8eJ)	.
=34	=34	=34	=34	=34
.	16ccLL	.	.	.
.	16bn	.	.	.
.	16cc	.	.	.
.	16b-X	.	.	.
.	16a	.	.	.
.	16gJJ)	.	.	.
.	(16fLL	.	.	.
.	16e	.	.	.
.	16f	.	.	.
.	16e-X	.	.	.
.	16d	4A)	.	.
.	16cJJ)	.	.	.
.	(16B-LL	.	.	.
.	16A	.	.	.
.	16B-	8r	.	.
.	16A	.	.	.
.	16G	16aaLL	4f	.
.	16FJJ)	16gg#X	.	.
4FF'	.	16aa	.	.
.	.	16ggn	.	.
.	.	16ff	8r	.
.	.	(>16eeJJ)	.	.
8r	.	16ddLL	4r	.
.	.	16cc#X	.	.
4r	.	16dd	.	.
.	.	16ccn	.	.
.	.	16b-	(16dddLL	.
.	.	16aJJ)	16ccc#X	.
8r	.	.	16ddd	.
.	.	.	16cccn	.
(4BB-	.	.	16bb-	.
.	.	.	16aaJJ)	.
.	.	.	8r	.
16CLL	.	.	.	.
16DJJ)	.	.	.	.
=35	=35	=35	=35	=35
.	(8E-XL	.	.	.
.	8B-)	.	.	.
.	8B-J	.	.	.
.	2.c	.	.	.
.	.	(<8gL	.	.
.	.	8e-X)	.	.
.	.	8e-'J	.	.
.	.	2.e-	[4.gg	.
(<16E-XLL	.	.	.	.
16D	.	.	.	.
16E-	.	.	.	.
16D	.	.	.	.
16C	.	.	4.gg-	.
16BB-JJ	.	.	.	.
16AALL	.	.	.	.
16BB-	.	.	.	.
16AA	.	.	.	.
16BB-	.	.	.	.
16C	.	.	[4.ff	.
16BB-JJ	.	.	.	.
16AALL	.	.	.	.
16GG#X	.	.	.	.
16AA	.	.	.	.
16FF	.	.	.	.
16GG#	.	.	.	.
16AAJJ)	.	.	.	.
=36	=36	=36	=36	=36
!	!LO:TX:b:Bi:t=Cresc.	!	!	!
.	(>8.B-L	.	.	.
.	16fL	.	.	.
.	16en	.	.	.
.	16fJJ)	.	.	.
.	(>4.g	.	.	.
!	!	!LO:TX:b:Bi:t=Cresc.	!	!
.	.	8d-XL	.	.
.	4.f)	8dd-X	.	.
.	.	8dd-'J	.	.
!	!	!	!LO:TX:b:Bi:t=Cresc.	!
.	.	2.cc	(8ffL]	.
!LO:TX:b:Bi:t=Cresc.	!	!	!	!
16BB-LL	.	.	8bb-)	.
16AA	.	.	.	.
16BB-	.	.	8bb-'J	.
16AA-X	.	.	.	.
16GG	.	.	(4.bb-	.
16FFJJ	.	.	.	.
(16EELL	.	.	.	.
16CC	.	.	.	.
16EE	.	.	.	.
16GG	.	.	.	.
16C	.	.	4.aa-X)	.
16EJJ	.	.	.	.
16FLL	.	.	.	.
16E	.	.	.	.
16F	.	.	.	.
16G	.	.	.	.
16A-X	.	.	.	.
16FJJ)	.	.	.	.
=37	=37	=37	=37	=37
.	4.B-	.	.	.
.	(16FLL	.	.	.
.	16E	.	.	.
.	16F	.	.	.
.	16E	.	.	.
.	16F	(>16dd-XLL	.	.
.	16A-XJJ)	16cc	.	.
.	4c	16dd-	.	.
.	.	16cc	.	.
.	.	16dd-	.	.
.	.	16ccJJ)	.	.
.	(8c	(4.bn	(>4.gg-X	.
(<4.BB-	.	.	.	.
.	.	4.b-X)	[4.ff)	.
4.D-X	.	.	.	.
4.C)	.	.	8ggn	.
.	.	.	8eeJ)	.
=38	=38	=38	=38	=38
.	4.cc)	.	.	.
.	(16bnLL	.	.	.
.	16cc)	.	.	.
.	(16dd	.	.	.
.	16cc)	.	.	.
.	(16g#X	8aL	.	.
.	16aJJ)	.	.	.
.	(16b-XLL	8A	.	.
.	16a)	.	.	.
.	(16e	8AJ	.	.
.	16f)	.	.	.
.	(16gn	4A	8ffL	.
.	16fJJ)	.	.	.
8FFL	.	.	8c	.
8F	.	8r	8cJ	.
8FJ	.	4r	4c	.
4F	.	.	.	.
.	.	8r	8r	.
8r	.	.	4r	.
4r	.	.	.	.
.	.	.	8r	.
8r	.	.	.	.
=39	=39	=39	=39	=39
.	8B-L	.	.	.
.	8B-	.	.	.
.	8B-J	.	.	.
.	4B-	.	.	.
.	8r	4.gg	.	.
.	4r	.	.	.
.	8r	(16ff#XLL	8eL	.
.	.	16gg)	.	.
8FFL	.	(16aa	8e	.
.	.	16gg)	.	.
8F	.	(16dd#X	8eJ	.
.	.	16eeJJ)	.	.
8FJ	.	(16ffnLL	4e	.
.	.	16ee)	.	.
4F	.	(16bn	.	.
.	.	16cc)	.	.
.	.	(16ddn	8r	.
.	.	16ccJJ)	.	.
8r	.	.	4r	.
4r	.	.	.	.
.	.	.	8r	.
8r	.	.	.	.
=40	=40	=40	=40	=40
.	8aL	.	.	.
.	8a	.	.	.
.	8aJ	.	.	.
.	4a	.	.	.
.	8r	8ccL	.	.
.	4r	8cc	.	.
.	.	8ccJ	.	.
.	8r	4cc	4.ccc	.
8FL	.	.	.	.
8f	.	8r	.	.
8fJ	.	4r	(16bbnLL	.
.	.	.	16ccc)	.
4f	.	.	(16ddd	.
.	.	.	16ccc)	.
.	.	8r	(16gg#X	.
.	.	.	16aaJJ)	.
8r	.	.	(16bb-XLL	.
.	.	.	16aa)	.
4r	.	.	(16ee	.
.	.	.	16ff)	.
.	.	.	(16ggn	.
.	.	.	16ffJJ)	.
8r	.	.	.	.
=41	=41	=41	=41	=41
.	8%9r	.	.	.
.	.	8%9r	.	.
.	.	.	(16cc#XLL	.
.	.	.	16dd)	.
8%9r	.	.	(16ee	.
.	.	.	16dd)	.
.	.	.	(16a	.
.	.	.	16b-JJ)	.
.	.	.	(16ccnLL	.
.	.	.	16b-)	.
.	.	.	(16f#X	.
.	.	.	16g)	.
.	.	.	(16a	.
.	.	.	16gJJ)	.
.	.	.	(16f#LL	.
.	.	.	16g)	.
.	.	.	(16a	.
.	.	.	16g)	.
.	.	.	(16f#	.
.	.	.	16gJJ)	.
=42	=42	=42	=42	=42
.	(4G	.	.	.
.	8F	.	.	.
.	4E	.	.	.
.	8D	4r	.	.
.	4C	.	.	.
.	.	8r	.	.
.	8E)	(4g	(4b-	.
[2.C	.	.	.	.
.	.	8f	8a)	.
.	.	4e	([4.g	.
.	.	8G)	.	.
.	.	.	8gL]	.
(<4C]	.	.	8a	.
.	.	.	8b-J)	.
8BB-	.	.	.	.
=43	=43	=43	=43	=43
.	(4F	.	.	.
!	!LO:TX:b:Bi:t=Cresc.	!	!	!
.	8B-	.	.	.
.	[4.A)	.	.	.
.	.	(4c	.	.
.	(8AL]	.	.	.
!	!	!LO:TX:b:Bi:t=Cresc.	!	!
.	8d	16dLL	.	.
.	.	16eJJ)	.	.
.	8eJ)	[4.f	(>4cc	.
4AA	.	.	.	.
!	!	!	!LO:TX:b:Bi:t=Cresc.	!
.	.	.	16ddLL	.
.	.	.	16eeJJ)	.
!LO:TX:b:Bi:t=Cresc.	!	!	!	!
8GG	.	8fL]	[4.ff	.
4FF	.	(8f	.	.
.	.	8gJ)	.	.
8EE	.	.	(8ffL]	.
4DD	.	.	8a)	.
.	.	.	8aJ	.
8CC#X)	.	.	.	.
=44	=44	=44	=44	=44
.	4d	.	.	.
.	8d	.	.	.
.	(4.c	.	.	.
.	.	4f	.	.
.	4.B-)	.	.	.
.	.	8g	.	.
.	.	4.f	(4a	.
(<8DDL	.	.	.	.
.	.	.	16qqcc/LL	.
.	.	.	16qqb-/	.
.	.	.	16qqa/	.
.	.	.	16qqb-/JJ	.
8D	.	.	16ccLL	.
.	.	.	16b-JJ)	.
8BB-J)	.	4.e)	[4.a	.
(4.C	.	.	.	.
4.CC)	.	.	.	.
.	.	.	(16gL	<
.	.	.	16.dd	.
.	.	.	32ccJJk)	>
=45	=45	=45	=45	=45
.	4A	.	.	.
.	8r	.	.	.
.	4A	.	.	.
.	8r	4c	.	.
.	4r	.	.	.
.	.	8r	.	.
.	8r	4c	4f	.
4FF	.	.	.	.
.	.	8r	8r	.
8r	.	4r	4f	.
4F	.	.	.	.
.	.	8r	8r	.
8r	.	.	4r	.
4r	.	.	.	.
.	.	.	8r	.
8r	.	.	.	.
=46	=46	=46	=46	=46
.	4c	.	.	.
.	8r	.	.	.
.	4cc	.	.	.
.	8r	4A 4f	.	.
.	4r	.	.	.
.	.	8r	.	.
.	8r	4a 4ff	4.ccc	.
4E-X	.	.	.	.
.	.	8r	.	.
8r	.	4.r	(16bbnLL	.
.	.	.	16ccc)	.
4e-X	.	.	(16ddd	.
.	.	.	16ccc)	.
.	.	.	(16gg#X	.
.	.	.	16aaJJ)	.
8r	.	.	(16bb-XLL	.
.	.	.	16aa)	.
4r	.	.	(16ee	.
.	.	.	16ff)	.
.	.	.	(16ggn	.
.	.	.	16ffJJ)	.
8r	.	.	.	.
=47	=47	=47	=47	=47
.	4c	.	.	.
.	8r	.	.	.
.	4cc	.	.	.
.	8r	4A 4f#X	.	.
.	4r	.	.	.
.	.	8r	.	.
.	8r	4a 4ff#X	4.ccc	.
4D	.	.	.	.
.	.	8r	.	.
8r	.	4r	(16bbnLL	.
.	.	.	16ccc)	.
!	!	!	!LO:TX:b:Bi:t=Cresc.	!
4d	.	.	(16gg#X	.
.	.	.	16aa)	.
.	.	8r	(16ee#X	.
.	.	.	16ff#XJJ)	.
8r	.	.	(16cc#XLL	.
.	.	.	16dd)	.
4r	.	.	(16bn	.
.	.	.	16ccn)	.
.	.	.	(16a	.
.	.	.	16f#XJJ)	.
8r	.	.	.	.
=48	=48	=48	=48	=48
.	(<4.D	.	.	.
.	4.G	.	.	.
.	.	(<4.d	.	.
.	4A)	.	.	.
.	8r	4.g	[2.d [2.dd	.
8GGL	.	.	.	.
8GG	.	.	.	.
8GGJ	.	4.a)	.	.
8BB-L	.	.	.	.
8BB-	.	.	.	.
8BB-J	.	.	4.d] 4.dd]	.
8FF#XL	.	.	.	.
8FF#	.	.	.	.
8FF#J	.	.	.	.
=49	=49	=49	=49	=49
.	(<[4.B-	.	.	.
.	4B-]	.	.	.
*	*	*^	*	*
.	(<16ALL	[4.b-	8ryy	.	.
.	16GJJ)	.	.	.	.
.	16GLL	.	8ryy	.	.
.	32AL	.	.	.	.
.	32GJ	.	.	.	.
.	16F#X	.	8ryy	.	.
.	16G	.	.	.	.
.	16B-	(4b-]	8ryy	(32ddLLL	.
.	.	.	.	32cc#X	.
.	16AJJ)	.	.	32dd	.
.	.	.	.	32ff#X	.
8GGL	.	.	8ryy	32gg	.
.	.	.	.	32ff#	.
.	.	.	.	32gg	.
.	.	.	.	32aaJJ	.
8GG	.	16aLL)	8ryy	8bb-'J)	.
.	.	16gJJ	.	.	.
8GGJ	.	(16gLL	8ryy	2.d 2.dd	.
.	.	32aL	.	.	.
.	.	32gJ	.	.	.
8BB-L	.	16f	8ryy	.	.
.	.	16g	.	.	.
*	*	*v	*v	*	*
8BB-	.	16b-	.	.
.	.	16aJJ)	.	.
8BB-J	.	.	.	.
8DL	.	.	.	.
8D	.	.	.	.
8DJ	.	.	.	.
=50	=50	=50	=50	=50
.	(4.G	.	.	.
.	[4.F#X)	.	.	.
.	.	(4.g	.	.
.	(<8F#L]	.	.	.
.	16F#L	.	.	.
.	16G	.	.	.
.	16A	(<[4.f#X)	(>32ddLLL	.
.	.	.	32cc#X	.
.	16B-JJ)	.	32dd	.
.	.	.	32ee	.
8AAL	.	.	32ff#X	.
.	.	.	32ee	.
.	.	.	32ff#	.
.	.	.	32ggJJ	.
8AA	.	.	8aa'J)	.
8AAJ	.	8f#L]	2.d 2.dd	.
8CL	.	16f#L	.	.
.	.	16g	.	.
8C	.	16a	.	.
.	.	16b-JJ)	.	.
8CJ	.	.	.	.
8DL	.	.	.	.
8D	.	.	.	.
8DJ	.	.	.	.
=51	=51	=51	=51	=51
.	[4.c	.	.	.
.	(>4c]	.	.	.
.	16dLL	(>[4.cc	.	.
.	16cJJ	.	.	.
.	16BnLL	.	.	.
.	16c	.	.	.
.	16d	.	.	.
.	16c	.	.	.
.	16e-X	4cc]	(>32ddLLL	.
.	.	.	32cc#X	.
.	16dJJ)	.	32dd	.
.	.	.	32ee	.
8FF#XL	.	.	32ff#X	.
.	.	.	32ee	.
.	.	.	32ff#	.
.	.	.	32ggJJ	.
8FF#	.	16ddLL	8aa'J)	.
.	.	16ccJJ	.	.
8FF#J	.	16bnLL	2.f#X	.
.	.	16cc	.	.
8AAL	.	16dd	.	.
.	.	16cc	.	.
8AA	.	16ee-X)	.	.
.	.	16ddJJ	.	.
8AAJ	.	.	.	.
8DL	.	.	.	.
8D	.	.	.	.
8DJ	.	.	.	.
=52	=52	=52	=52	=52
.	(4.c	.	.	.
.	[4.Bn)	.	.	.
.	.	(4.cc	.	.
.	8BL]	.	.	.
.	(16BL	.	.	.
.	16c	.	.	.
.	16d	[4.bn)	(>32ddLLL	.
.	.	.	32cc#X	.
.	16e-XJJ)	.	32dd	.
.	.	.	32ee-X	.
8FFL	.	.	32ff	.
.	.	.	32ee-	.
.	.	.	32ff	.
.	.	.	32ggJJ	.
8FF	.	.	8aa-X'J)	.
8FFJ	.	8bL]	2.f	.
8AA-XL	.	(16bL	.	.
.	.	16cc	.	.
8AA-	.	16dd	.	.
.	.	16ee-XJJ)	.	.
8AA-J	.	.	.	.
8DL	.	.	.	.
8D	.	.	.	.
8C'J	.	.	.	.
=53	=53	=53	=53	=53
!	!LO:TX:b:Bi:t=Cresc.	!	!	!
.	(>[4.f	.	.	.
.	8fL_	.	.	.
.	16fL]	.	.	.
.	16d	.	.	.
!	!	!LO:TX:b:Bi:t=Cresc.	!	!
.	16Bn	[4.ff	.	.
.	16GJJ	.	.	.
.	16F#XLL	.	.	.
.	16G	.	.	.
.	16A-X	.	.	.
.	16G	.	.	.
!	!	!	!LO:TX:b:Bi:t=Cresc.	!
.	16Fn	8ffL]	(>32ggLLL	.
.	.	.	32ff#X	.
.	16DJJ)	.	32gg	.
.	.	.	32aa	.
!LO:TX:b:Bi:t=Cresc.	!	!	!	!
8BBnL	.	(16ffL	32bbn	.
.	.	.	32aa	.
.	.	16dd	32bb	.
.	.	.	32cccJJJ	.
8BB	.	16bn	8ddd')	.
.	.	16gJJ	.	.
8BBJ	.	16f#XLL	[4.Bn	.
.	.	16g	.	.
8DL	.	16a-X	.	.
.	.	16g	.	.
8D	.	16fn	.	.
.	.	16dJJ)	.	.
8DJ	.	.	8BL]	.
8GGL	.	.	(8B	.
8GG	.	.	8gJ)	.
8GGJ	.	.	.	.
=54	=54	=54	=54	=54
.	4E-X	.	.	.
.	8r	.	.	.
.	4r	.	.	.
.	8r	(>8c'L 8e-X	.	.
.	4r	8c' 8e-	.	.
.	.	8c'J 8e-	.	.
.	8r	4.c) 4.e-	(>4.g	.
(32CLLL	.	.	.	.
32BBn	.	.	.	.
32C	.	.	.	.
32D	.	.	.	.
32E-X	.	.	.	.
32D	.	.	.	.
32E-	.	.	.	.
32FJJ	.	.	.	.
8G'J)	.	4.c 4.e-	4.cc	.
4r	.	.	.	.
8r	.	.	4.dd)	.
4r	.	.	.	.
8r	.	.	.	.
=55	=55	=55	=55	=55
.	(4.E-X	.	.	.
.	4.A-X	.	.	.
.	.	4.c 4.e-X	.	.
.	4.B-)	.	.	.
.	.	4.c 4.e-	4ee-X	.
(32AA-XLLL	.	.	.	.
32GG	.	.	.	.
32AA-	.	.	.	.
32BB-	.	.	.	.
32C	.	.	8r	.
32BBn	.	.	.	.
32C	.	.	.	.
32DJJ	.	.	.	.
8E-X'J)	.	4.c 4.e-	4r	.
4r	.	.	.	.
.	.	.	8r	.
8r	.	.	4r	.
4r	.	.	.	.
.	.	.	8r	.
8r	.	.	.	.
=56	=56	=56	=56	=56
.	4c	.	.	.
.	8r	.	.	.
.	4r	.	.	.
.	8r	4.c 4.d	.	.
.	4r	.	.	.
.	8r	4.c 4.d	(4.dd	.
(32FF#XLLL	.	.	.	.
32EE	.	.	.	.
32FF#	.	.	.	.
32GG	.	.	.	.
32AA	.	.	.	.
32GG	.	.	.	.
32AA	.	.	.	.
32BB-JJ	.	.	.	.
8C'J)	.	4.c 4.d	4.aa	.
4r	.	.	.	.
8r	.	.	4.ddd)	.
4r	.	.	.	.
8r	.	.	.	.
=57	=57	=57	=57	=57
.	(<4.D	.	.	.
.	4.G	.	.	.
.	.	4.B- 4.d	.	.
.	4.A)	.	.	.
.	.	4.B- 4.d	4bb-	.
(<32GGLLL	.	.	.	.
32FF#X	.	.	.	.
32GG	.	.	.	.
32AA	.	.	.	.
32BB-	.	.	8r	.
32AA	.	.	.	.
32BB-	.	.	.	.
32CJJ	.	.	.	.
8D'J)	.	4.B- 4.d	4r	.
4r	.	.	.	.
.	.	.	8r	.
8r	.	.	4r	.
4r	.	.	.	.
.	.	.	8r	.
8r	.	.	.	.
=58	=58	=58	=58	=58
!	!LO:TX:b:Bi:t=Cresc.	!	!	!
.	(>4.B-	.	.	.
.	4.e-X	.	.	.
!	!	!LO:TX:b:Bi:t=Cresc.	!	!
.	.	4.g	.	.
.	4.d)	.	.	.
!	!	!	!LO:TX:b:Bi:t=Cresc.	!
.	.	4.g 4.b-	(>4.b-	.
!LO:TX:b:Bi:t=Cresc.	!	!	!	!
(<32EE-XLLL	.	.	.	.
32DD	.	.	.	.
32EE-	.	.	.	.
32FF	.	.	.	.
32GG	.	.	.	.
32FF	.	.	.	.
32GG	.	.	.	.
32AA-XJJ	.	.	.	.
8BB-'J	.	4.f 4.b-	4.ee-X	.
4r	.	.	.	.
8r	.	.	4.ff)	.
4r	.	.	.	.
8r	.	.	.	.
=59	=59	=59	=59	=59
.	4c#X 4e	.	.	.
.	8r	.	.	.
.	4r	.	.	.
.	8r	4g 4b-	.	.
.	4r	.	.	.
.	.	8r	.	.
.	8r	4r	4gg	.
4C#X	.	.	.	.
.	.	8r	8r	.
8r	.	4r	4r	.
4r	.	.	.	.
.	.	8r	8r	.
8r	.	.	4r	.
4r	.	.	.	.
.	.	.	8r	.
8r	.	.	.	.
=60	=60	=60	=60	=60
.	4d	.	.	.
.	8r	.	.	.
.	4r	.	.	.
.	8r	4f 4a	.	.
.	4r	.	.	.
.	.	8r	.	.
.	8r	4r	4ff	.
4D	.	.	.	.
.	.	8r	8r	.
8r	.	4r	4r	.
4r	.	.	.	.
.	.	8r	8r	.
8r	.	.	4r	.
4r	.	.	.	.
.	.	.	8r	.
8r	.	.	.	.
=61	=61	=61	=61	=61
.	4B-	.	.	.
.	8r	.	.	.
.	4r	.	.	.
.	8r	4d	.	.
.	4r	.	.	.
.	.	8r	.	.
.	8r	4r	4ee	.
4GG	.	.	.	.
.	.	8r	8r	.
8r	.	4r	4r	.
4r	.	.	.	.
.	.	8r	8r	.
8r	.	.	4r	.
4r	.	.	.	.
.	.	.	8r	.
8r	.	.	.	.
=62	=62	=62	=62	=62
.	4G	.	.	.
.	8r	.	.	.
.	4r	.	.	.
.	8r	4c#X	.	.
.	4r	.	.	.
.	.	8r	.	.
.	8r	4r	4a	.
4AA	.	.	.	.
.	.	8r	8r	.
8r	.	4r	4r	.
4r	.	.	.	.
.	.	8r	8r	.
8r	.	.	4r	.
4r	.	.	.	.
.	.	.	8r	.
8r	.	.	.	.
=63	=63	=63	=63	=63
.	(<8F'L	.	.	.
.	8F'	.	.	.
.	8F'J)	.	.	.
.	8AL	.	.	.
.	8A	.	.	.
.	8AJ	16r	.	.
.	.	(<16ALL	.	.
.	8GL	16B-	.	.
.	.	16A	.	.
.	8G	16B-	.	.
.	.	16AJJ)	.	.
.	8GJ	16r	8%9r	.
.	.	16ALL	.	.
(>8D'L	.	16d	.	.
.	.	16A	.	.
8D'	.	16d	.	.
.	.	16AJJ)	.	.
8D'J)	.	16r	.	.
.	.	(16ALL	.	.
8FL	.	16c#X	.	.
.	.	16A)	.	.
8F	.	16c#	.	.
.	.	16AJJ	.	.
8FJ	.	.	.	.
8EL	.	.	.	.
8E	.	.	.	.
8EJ	.	.	.	.
=64	=64	=64	=64	=64
.	8FL	.	.	.
!	!LO:TX:b:Bi:t=Cresc.	!	!	!
.	8F	.	.	.
.	8FJ	.	.	.
.	8AL	.	.	.
.	8A	.	.	.
.	8AJ	16r	.	.
.	.	16ALL	.	.
!	!	!LO:TX:b:Bi:t=Cresc.	!	!
.	8GL	16B-	.	.
.	.	16A	.	.
.	8G	16B-	.	.
.	.	16AJJ)	.	.
.	8GJ	16r	[2.a	.
.	.	16ALL	.	.
8DL	.	16d	.	.
.	.	16A	.	.
!LO:TX:b:Bi:t=Cresc.	!	!	!	!
8D	.	16d	.	.
.	.	16AJJ)	.	.
8DJ	.	16r	.	.
.	.	(16ALL	.	.
8FL	.	16c#X	.	.
.	.	16A)	.	.
8F	.	16c#	.	.
.	.	16AJJ	.	.
!	!	!	!LO:TX:b:Bi:t=Cresc.	!
8FJ	.	.	4.a_	.
8EL	.	.	.	.
8E	.	.	.	.
8EJ	.	.	.	.
=65	=65	=65	=65	=65
.	8FL	.	.	.
.	8F	.	.	.
.	8FJ	.	.	.
.	8AL	.	.	.
.	8A	.	.	.
.	8AJ	16r	.	.
.	.	(<16ALL	.	.
.	8c#XL	16B-	.	.
.	.	16A	.	.
.	8c#	16B-	.	.
.	.	16AJJ)	.	.
.	8c#J	16r	(4.a]	.
.	.	16ALL	.	.
8DL	.	16d	.	.
.	.	16A	.	.
8D	.	16d	.	.
.	.	16AJJ)	.	.
8DJ	.	16r	4.dd	.
.	.	(16ALL	.	.
8FL	.	16e	.	.
.	.	16A	.	.
8F	.	16e	.	.
.	.	16AJJ)	.	.
8FJ	.	.	4.ee)	.
8AL	.	.	.	.
8A	.	.	.	.
8AJ	.	.	.	.
=66	=66	=66	=66	=66
.	16r	.	.	.
.	(<16FLL	.	.	.
.	16A	.	.	.
.	16F	.	.	.
.	16A	.	.	.
.	16FJJ)	.	.	.
.	16r	.	.	.
.	(<16FLL	.	.	.
.	16A	.	.	.
.	16F	.	.	.
.	16A	16r	.	.
.	16FJJ)	16fLL	.	.
.	16r	16a	.	.
.	(<16FLL	16f	.	.
.	16B-	16a	.	.
.	16F	16fJJ)	.	.
.	16B-	16r	[4.ff	.
.	16FJJ)	16fLL	.	.
8DDL	.	16a	.	.
.	.	16f	.	.
8D	.	16a	.	.
.	.	16fJJ	.	.
8DJ	.	16r	(4ff]	.
.	.	16fLL	.	.
8DDL	.	16b-	.	.
.	.	16f	.	.
8D	.	16b-	16eeLL	.
.	.	16fJJ)	16ddJJ)	.
8DJ	.	.	(16ddLL	.
.	.	.	32eeL	.
.	.	.	32ddJ	.
8DDL	.	.	16cc#X	.
.	.	.	16dd	.
8D	.	.	16ff	.
.	.	.	16eeJJ)	.
8DJ	.	.	.	.
=67	=67	=67	=67	=67
.	(<32GLLL	.	.	.
.	32F#X	.	.	.
.	32G	.	.	.
.	32F#	.	.	.
.	32G	.	.	.
.	32F#	.	.	.
.	32G	.	.	.
.	32AJJ	.	.	.
.	8B-'J)	.	.	.
.	(<16GLL	.	.	.
.	32F#L	.	.	.
.	32G	.	.	.
.	32F#	.	.	.
.	32G	.	.	.
.	32F#	.	.	.
.	32G	.	.	.
.	32AJJ	(<32gLLL	.	.
.	8B-'J)	32f#X	.	.
.	.	32g	.	.
.	.	32f#	.	.
.	.	32g	.	.
.	(<32GLLL	32f#	.	.
.	32F#	32g	.	.
.	32G	32aJJ	.	.
.	32A	8b-'J)	.	.
.	32B-	.	.	.
.	32A	.	.	.
.	32B-	.	.	.
.	32A	32gLLL	(>4dd	.
.	32G	32f#	.	.
.	32Fn	32g	.	.
.	32DJJJ)	32f#	.	.
8EEL	.	32g	.	.
.	.	32f#	.	.
.	.	32g	.	.
.	.	32aJJ	.	.
8E	.	8b-'J)	[4.cc#X)	.
8EJ	.	32gLLL	.	.
.	.	32f#	.	.
.	.	32g	.	.
.	.	32a	.	.
8EEL	.	32b-	.	.
.	.	32a	.	.
.	.	32b-	.	.
.	.	32a	.	.
8E	.	32g	8cc#L]	.
.	.	32fn	.	.
.	.	32e)	.	.
.	.	32dJJJ	.	.
8EJ	.	.	(16cc#L	.
.	.	.	16dd	.
8EEL	.	.	16ee	.
.	.	.	16ffJJ)	.
8E	.	.	.	.
8EJ	.	.	.	.
=68	=68	=68	=68	=68
.	(>16C#X'LL	.	.	.
.	16E)	.	.	.
.	16G	.	.	.
.	16E	.	.	.
.	16G	.	.	.
.	16EJJ)	.	.	.
.	16r	.	.	.
.	(<16ELL	.	.	.
.	16G	.	.	.
.	16E	.	.	.
.	16G	(<16c#X'	.	.
.	16EJJ)	16c#LL	.	.
.	16r	16b-	.	.
.	(<16ELL	16c#	.	.
.	16G	16b-	[4.gg	.
.	16E	16c#JJ	.	.
.	16G	16r	.	.
.	16EJJ)	16c#LL	.	.
8EEL	.	16b-	.	.
.	.	16c#	.	.
8E	.	16b-	8ggL]	.
.	.	16c#JJ)	.	.
.	.	.	32qqaa/	.
8EJ	.	16r	(16ggL	.
.	.	(16c#LL	16ff#X	.
8EEL	.	16b-	16gg	.
.	.	16c#	16aaJJ)	.
8E	.	16b-	(4bb-	.
.	.	16c#JJ)	.	.
8EJ	.	.	.	.
8EEL	.	.	8cc#X)	.
8E	.	.	.	.
8EJ	.	.	.	.
=69	=69	=69	=69	=69
.	(<32ALLL	.	.	.
.	32G	.	.	.
.	32A	.	.	.
.	32G	.	.	.
.	32A	.	.	.
.	32G	.	.	.
.	32F	.	.	.
.	32EJJ	.	.	.
.	8D'J)	.	.	.
.	(<32ALLL	.	.	.
.	32G#X	.	.	.
.	32A	.	.	.
.	32G#	.	.	.
.	32A	.	.	.
.	32Gn	.	.	.
.	32F	.	.	.
.	32EJJ)	.	.	.
.	8D'J	(32aLLL	.	.
.	.	32g#X	.	.
.	.	32a	.	.
.	.	32g#	.	.
.	(<32ALLL	32a	.	.
.	32G#X	32gn	.	.
.	32A	32f	.	.
.	32G#	32eJJ	.	.
.	32A	8d'J)	(>4.ee	.
.	32Gn	.	.	.
.	32F-X	.	.	.
.	32EJJ	.	.	.
.	8D'J)	32aLLL	.	.
.	.	32g#X	.	.
.	.	32a	.	.
.	.	32g#	.	.
8FFL	.	32a	.	.
.	.	32gn	.	.
.	.	32f	.	.
.	.	32eJJ	.	.
8F	.	8d'J)	[4dd)	.
8FJ	.	32aLLL	.	.
.	.	32g#X	.	.
.	.	32a	.	.
.	.	32g#	.	.
8FFL	.	32a	(8ddL]	.
.	.	32gn	.	.
.	.	32f	.	.
.	.	32eJJ	.	.
8F	.	8d'J)	8ee	.
8FJ	.	.	8ffJ)	.
8FFL	.	.	.	.
8F	.	.	.	.
8FJ	.	.	.	.
=70	=70	=70	=70	=70
.	16r	.	.	.
.	(16B-LL	.	.	.
.	16d	.	.	.
.	16B-	.	.	.
.	16d	.	.	.
.	16B-JJ)	.	.	.
.	16r	.	.	.
.	(16B-LL	.	.	.
.	16d	.	.	.
.	16B-	.	.	.
.	16d	16r	.	.
.	16B-JJ)	(<16dLL	.	.
.	16r	16e	(>4.ff	.
.	(16B-LL	16d	.	.
.	16d	16e	.	.
.	16B-	16dJJ)	.	.
.	16d	16r	.	.
.	16B-JJ)	16dLL	.	.
8GGL	.	16e	[4.ee)	.
.	.	16d	.	.
8G	.	16e	.	.
.	.	16dJJ)	.	.
8GJ	.	16r	.	.
.	.	(16dLL	.	.
8GGL	.	16f	(8eeL]	.
.	.	16d	.	.
8G	.	16f	8ff	.
.	.	16dJJ)	.	.
8GJ	.	.	8ddJ)	.
8GG#XL	.	.	.	.
8G#X	.	.	.	.
8G#J	.	.	.	.
=71	=71	=71	=71	=71
.	8EL	.	.	.
.	(8A'	.	.	.
.	8A'J)	.	.	.
.	[4.A	.	.	.
.	.	4c#X	.	.
.	8AL]	.	4cc#X	.
.	8B-	8r	.	.
.	8BnJ	8r	8r	.
4AA	.	8aL	8r	.
.	.	8gJ	(8aaL	.
8r	.	8fL	8ggJ	.
8r	.	8e	8ffL	.
8C#XL	.	8dJ)	8ee	.
8EJ	.	.	8ddJ)	.
8DL	.	.	.	.
8GG	.	.	.	.
8GG#XJ)	.	.	.	.
=72	=72	=72	=72	=72
.	[4.E	.	.	.
.	(<8EL]	.	.	.
.	8A'	.	.	.
.	8A'J)	4c#X	.	.
.	(8AL	.	4cc#X	.
.	8B-	8r	.	.
.	8BnJ)	4a	8r	.
(8AAL	.	.	(4aa	.
8BB-	.	8g	.	.
8GG#XJ	.	8fL	8gg	.
8AAL	.	8e	8ffL	.
8C#X	.	8dJ)	8ee	.
8EJ	.	.	8ddJ)	.
8DL	.	.	.	.
8GGn	.	.	.	.
8GG#XJ)	.	.	.	.
=73	=73	=73	=73	=73
.	4E	.	.	.
.	8r	.	.	.
.	4r	.	.	.
.	8r	4c#X	.	.
.	(4.d	.	4cc#X	.
.	.	8r	.	.
.	.	4r	8r	.
4AA	.	.	4r	.
.	.	8r	.	.
8r	.	(4.f	8r	.
4r	.	.	(4.b-	.
8r	.	.	.	.
(4.A	.	.	.	.
=74	=74	=74	=74	=74
.	4c#X)	.	.	.
.	8r	.	.	.
.	4r	.	.	.
.	8r	4e)	.	.
.	(4.B-	.	4a)	.
.	.	8r	.	.
.	.	4r	8r	.
4A)	.	.	4r	.
.	.	8r	.	.
8r	.	(4.B-	8r	.
4r	.	.	(4.B-	.
8r	.	.	.	.
(4.BB-	.	.	.	.
=75	=75	=75	=75	=75
.	(8AL	.	.	.
!	!LO:TX:b:Bi:t=Cresc.	!	!	!
.	8c#X	.	.	.
.	8eJ	.	.	.
.	[4.a	.	.	.
.	.	8AL)	.	.
!	!	!LO:TX:b:Bi:t=Cresc.	!	!
.	8aL])	8c#X	8AL)	.
!	!	!	!LO:TX:b:Bi:t=Cresc.	!
.	(8a'	8eJ	8c#X	.
.	8a'J)	8aL	8eJ	.
(8AAL	.	8c#	8aL	.
!LO:TX:b:Bi:t=Cresc.	!	!	!	!
8C#X	.	8dJ	8A	.
8EJ	.	8eL	8BnJ	.
8AL	.	8f#X	8c#L	.
8G	.	8gJ)	8d	.
8F#XJ	.	.	8eJ)	.
8EL	.	.	.	.
8D	.	.	.	.
8C#J)	.	.	.	.
=76	=76	=76	=76	=76
.	(>4.a	.	.	.
.	4.g	.	.	.
.	.	(8f#XL	.	.
.	8f#X	8A)	4d	.
.	32qqg/	.	.	.
.	16f#'LL	8A'J	.	.
.	16e	.	.	.
.	16f#)	(8eL	8r	.
.	16gJJ	.	.	.
4D	.	8A)	4r	.
.	.	8A'J	.	.
8r	.	(8dL	8r	.
4r	.	8A)	4r	.
.	.	8A'J	.	.
8r	.	.	8r	.
4r	.	.	.	.
8r	.	.	.	.
=77	=77	=77	=77	=77
.	4e	.	.	.
.	8r	.	.	.
!	!	!	!	!
.	4r	.	.	.
.	8r	(8c#XL	.	.
.	4r	8A)	(>4.bb-	.
.	.	8A'J	.	.
.	8r	(8dL	.	.
(4.G	.	8A)	4.aa	.
.	.	8A'J	.	.
.	.	(8eL	.	.
4F#X	.	8A)	8ggL	.
.	.	.	32qqaa/	.
.	.	8A'J	16ggL	.
.	.	.	16ff#X	.
4.C#X)	.	.	16gg	.
.	.	.	16aaJJ)	.
=78	=78	=78	=78	=78
.	(8aL	.	.	.
.	16ddL	.	.	.
.	16cc#	.	.	.
.	16bn	.	.	.
.	16aJJ)	.	.	.
.	(16aLL	.	.	.
.	16g	.	.	.
.	16ee	.	.	.
.	16dd#X	.	.	.
.	16a	(8f#XL	.	.
.	16gJJ)	.	.	.
.	(16gLL	8A)	4ff#X	.
.	16f#X	.	.	.
.	16ddn	8A'J	.	.
.	16a	.	.	.
4D	16g)	(8c#XL	8r	.
.	16f#JJ	.	.	.
.	.	8A)	4r	.
8r	.	8A'J	.	.
4r	.	(8dL	8r	.
.	.	8A)	4r	.
8r	.	8A'J	.	.
4r	.	.	8r	.
8r	.	.	.	.
=79	=79	=79	=79	=79
.	(4.e	.	.	.
.	4.f#X	.	.	.
.	.	(8c#XL	.	.
.	4.g)	8A)	(8bbnL	.
.	.	8AJ	16eeeL	.
.	.	.	16ddd	.
(>4.G	.	(8dL	16ccc#X	.
.	.	.	16bbJJ)	.
.	.	8A)	(16bbLL	.
.	.	.	16aa	.
.	.	8A'J	16ddd	.
.	.	.	16ccc#	.
4.F#X	.	(8eL	16bb	.
.	.	.	16aaJJ)	.
.	.	8A)	(16aaLL	.
.	.	.	16gg	.
.	.	8A'J	16eee	.
.	.	.	16ccc#	.
4.C#X)	.	.	16aa	.
.	.	.	16ggJJ)	.
=80	=80	=80	=80	=80
.	4f#X	.	.	.
.	8r	.	.	.
.	4r	.	.	.
.	8r	4A	.	.
.	4r	.	(>16ff#XLL	.
.	.	.	16ee#X	.
.	.	8r	16ff#	.
.	.	.	16een	.
4D	8r	4r	16dd	.
.	.	.	16cc#XJJ	.
.	.	.	16b-LL	.
.	.	.	16a#X	.
8r	.	8r	16b-	.
.	.	.	16an	.
4r	.	4r	16g	.
.	.	.	16f#XJJ	.
.	.	.	16eLL	.
.	.	.	16d#X	.
8r	.	8r	16e	.
.	.	.	16dn	.
4r	.	.	16c#X	.
.	.	.	16BnJJ)	.
8r	.	.	.	.
=81	=81	=81	=81	=81
.	[4.F#X	.	.	.
.	(4F#]	.	.	.
.	[8Bn)	4r	.	.
.	(16BLL]	.	(<4A#X	.
.	16A	.	.	.
.	16G	8r	.	.
.	16F#	.	.	.
(>16FLL	16E	4Bn	16BnLL	.
16E#X	16DJJ)	.	16c#XJJ)	.
16F	.	.	(4d	.
16En	.	.	.	.
16D	.	16c#XLL	.	.
16C#XJJ	.	16dJJ	.	.
16BBnLL	.	8.eL	16eLL	.
16AA#X	.	.	16f#XJJ)	.
16BB	.	.	(8g'L	.
16AAn	.	16BL	.	.
16GG	.	16c#	8g'	.
16FF#XJJ	.	16dJJ)	.	.
16EELL	.	.	8g'J)	.
16BB	.	.	.	.
16E	.	.	.	.
16D	.	.	.	.
16C#	.	.	.	.
16BBJJ)	.	.	.	.
=82	=82	=82	=82	=82
!	!LO:TX:b:Bi:t=Cresc.	!	!	!
.	(16C#XLL	.	.	.
.	16D	.	.	.
.	16E	.	.	.
.	16D	.	.	.
.	16C#	.	.	.
.	16DJJ	.	.	.
.	16ELL	.	.	.
.	16D	.	.	.
.	16C#	.	.	.
.	16D	.	.	.
!	!	!LO:TX:b:Bi:t=Cresc.	!	!
.	16E	(16eLL	.	.
.	16C#JJ	16d)	.	.
!	!	!	!LO:TX:b:Bi:t=Cresc.	!
.	16DLL	16c#X	(2.g	.
.	16C#	16d	.	.
.	16D	16e	.	.
.	16E	16dJJ	.	.
!LO:TX:b:Bi:t=Cresc.	!	!	!	!
(<2.AA	16F	16c#LL	.	.
.	16DJJ)	16d	.	.
.	.	16e	.	.
.	.	16d	.	.
.	.	16c#	.	.
.	.	16eJJ	.	.
.	.	4.d)	.	.
.	.	.	4.f)	.
4.BB-)	.	.	.	.
=83	=83	=83	=83	=83
.	(<4.G	.	.	.
.	16DLL	.	.	.
.	16C#X	.	.	.
.	16D	.	.	.
.	16C#	.	.	.
.	16D	(16B-LL	.	.
.	16FJJ)	16A	.	.
.	(>4A	16B-	(<4.e-X	.
.	.	16A	.	.
.	.	16B-	.	.
.	.	16AJJ)	.	.
(<4.GG	8a)	(4.G#X	.	.
.	.	.	[4.d)	sf
!	!	!	!	!
4.BB-	.	4Gn	.	.
.	.	.	(8dL]	.
!	!	!	!	!
.	.	8g)	8en	.
4.AA)	.	.	8c#XJ)	.
=84	=84	=84	=84	=84
.	(>16aLL	.	.	.
.	16g#X	.	.	.
.	16a	.	.	.
.	16gn	.	.	.
.	16f#X	.	.	.
.	16eJJ	.	.	.
.	16dLL	.	.	.
.	16c#X	.	.	.
.	16d	.	.	.
.	16cn	.	.	.
.	16Bn	4f#X	.	.
.	16AJJ)	.	.	.
.	(4G	.	4d	.
.	.	8r	.	.
4D	16ALL	(16ffLL	8r	.
.	16BJJ)	16ee#X	.	.
.	.	16ff	4r	.
.	.	16een	.	.
8r	.	16dd	.	.
.	.	16cc#XJJ	.	.
4r	.	16b-LL	8r	.
.	.	16a#X	.	.
.	.	16b-	(16bbnLL	.
.	.	16an	16aa#X	.
8r	.	16g	16bb	.
.	.	16f#JJ)	16aan	.
16GLL	.	.	16gg	.
16F#X	.	.	16ff#XJJ)	.
16G	.	.	.	.
16F#	.	.	.	.
16E	.	.	.	.
16DJJ)	.	.	.	.
=85	=85	=85	=85	=85
.	[2.c	.	.	.
.	.	4.e	.	.
.	8cL]	.	(4.ee	.
.	8c	.	.	.
(<16CLL	8cJ	(<[4.a	.	.
16BB-	.	.	.	.
16C	.	.	4.ee-X)	.
16BB-	.	.	.	.
16AA	.	.	.	.
16GGJJ	.	.	.	.
16FF#XLL	.	8.aL]	.	.
16GG	.	.	.	.
16FF#	.	.	([4.dd	.
16GG	.	16f#XL	.	.
16AA	.	16g	.	.
16GGJJ	.	16aJJ)	.	.
16FF#LL	.	.	.	.
16EE	.	.	.	.
16FF#	.	.	.	.
16DD	.	.	.	.
16EE	.	.	.	.
16FF#JJ)	.	.	.	.
=86	=86	=86	=86	=86
.	8.B-L	.	.	.
!	!LO:TX:b:Bi:t=Cresc.	!	!	!
.	16dL	.	.	.
.	16e	.	.	.
.	16fJJ	.	.	.
.	(4.e	.	.	.
.	.	(4.b-	.	.
.	4.d)	.	(8ddL]	.
!	!	!	!LO:TX:b:Bi:t=Cresc.	!
.	.	.	8gg)	.
!	!	!LO:TX:b:Bi:t=Cresc.	!	!
16GGLL	.	[4.a)	8gg'J)	.
(16B-	.	.	.	.
!LO:TX:b:Bi:t=Cresc.	!	!	!	!
16G	.	.	(4.gg	.
16F	.	.	.	.
16E	.	.	.	.
16DJJ	.	.	.	.
16C#XLL	.	8aL]	.	.
16BBn	.	.	.	.
16C#	.	8a'	4.ff)	.
16AA	.	.	.	.
16BB	.	8a'J	.	.
16C#JJ	.	.	.	.
16DLL	.	.	.	.
16C#	.	.	.	.
16D	.	.	.	.
16AA	.	.	.	.
16FF	.	.	.	.
16DDJJ)	.	.	.	.
=87	=87	=87	=87	=87
.	(<4.G	.	.	.
.	16DLL	.	.	.
.	16C#X	.	.	.
.	16D	.	.	.
.	16C#	.	.	.
.	16D	(16b-LL	.	.
.	16FJJ)	16a	.	.
.	4A	16b-	(>4.ee-X	.
.	.	16a	.	.
.	.	16b-	.	.
.	.	16aJJ)	.	.
4.GG	8A	4.g#X	.	.
.	.	.	[4dd')	sf
(4.BB-	.	4.gn	(8ddL]	.
.	.	.	8een	>
.	.	.	8cc#XJ)	.
4.AA)	.	.	.	.
=88	=88	=88	=88	=88
.	4.a	.	.	.
.	(16g#XLL	.	.	.
.	16a)	.	.	.
.	(16bn	.	.	.
.	16a)	.	.	.
.	(16e#X	8f#XL	8ddL	.
.	16f#XJJ)	.	.	.
.	(16gnLL	8A	8f#X	.
.	16f#)	.	.	.
.	(16c#X	8AJ	8f#J	.
.	16d)	.	.	.
8DDL	(16en	4A	4f#	.
.	16dJJ)	.	.	.
8D	.	.	.	.
8DJ	.	8r	8r	.
!	!	!	!	!
4D	.	4r	4r	.
8r	.	8r	8r	.
4r	.	.	.	.
8r	.	.	.	.
=89	=89	=89	=89	=89
.	8c#XL	.	.	.
.	8c#	.	.	.
.	8c#J	.	.	.
.	4c#	.	.	.
.	8r	4.ee	8AL 8g	.
.	4r	.	8A 8g	.
.	.	.	8AJ 8g	.
8DDL	8r	(16dd#XLL	4A 4g	.
.	.	16ee)	.	.
8D	.	(16ff#X	.	.
.	.	16ee)	.	.
8DJ	.	16b#X	8r	.
.	.	16cc#XJJ)	.	.
!	!	!	!	!
4D	.	(16ddnLL	4r	.
.	.	16cc#)	.	.
.	.	(16g#X	.	.
.	.	16a)	.	.
8r	.	(16bn	8r	.
.	.	16aJJ)	.	.
4r	.	.	.	.
8r	.	.	.	.
=90	=90	=90	=90	=90
.	8f#XL	.	.	.
.	8f#	.	.	.
.	8f#J	.	.	.
.	4f#	.	.	.
!	!	!	!LO:TX:b:Bi:t=Decresc.	!
.	8r	8a'L	(>4.aa	.
.	4r	8a'	.	.
.	.	8a'J	.	.
8DL	8r	4a	(16gg#XLL	.
.	.	.	16aa)	.
8d	.	.	(16bbn	.
.	.	.	16aa)	.
8dJ	.	8r	(16ee#X	.
.	.	.	16ff#XJJ)	.
4d	.	4r	(16ggnLL	.
.	.	.	16ff#)	.
.	.	.	(16cc#X	.
.	.	.	16dd)	.
8r	.	8r	(16een	.
.	.	.	16ddJJ)	.
4r	.	.	.	.
8r	.	.	.	.
=91	=91	=91	=91	=91
.	8%9r	.	.	.
.	.	8%9r	(<16a#XLL	.
.	.	.	16bn)	.
.	.	.	(16cc#X	.
.	.	.	16b)	.
.	.	.	(16f#X	.
.	.	.	16gJJ)	.
8%9r	.	.	(16anLL	.
.	.	.	16g)	.
.	.	.	(16d#X	.
.	.	.	16e)	.
.	.	.	(16f#	.
.	.	.	16eJJ)	.
.	.	.	(16d#LL	.
.	.	.	16e)	.
.	.	.	(16f#	.
.	.	.	16e)	.
.	.	.	(16d#	.
.	.	.	16eJJ)	.
=92	=92	=92	=92	=92
.	(>4e	.	.	.
.	8d	.	.	.
.	4c#X	.	.	.
*	*	*	*^	*
.	8Bn	4r	(4g	[4.A	.
.	4A	.	.	.	.
!	!	!	!	!	!
.	.	8r	8f#X	.	.
[2.AA	8E)	4e	[4.e	4.A_	.
.	.	8d	.	.	.
.	.	4c#X	8e]	4.A]	.
.	.	.	12f#L	.	.
.	.	.	12gJ)	.	.
.	.	8c#'	.	.	.
*	*	*	*v	*v	*
(<4AA]	.	.	.	.
8GG	.	.	.	.
=93	=93	=93	=93	=93
!	!LO:TX:b:Bi:t=Cresc.	!	!	!
.	(4D	.	.	.
.	8G)	.	.	.
.	[4.F#X	.	.	.
!	!	!LO:TX:b:Bi:t=Cresc.	!LO:TX:b:Bi:t=Cresc.	!
.	.	4A	(4a	.
.	(8F#L]	.	.	.
.	8Bn	(<16BnLL	16bnLL	.
.	.	16c#XJJ	16cc#XJJ)	.
!LO:TX:b:Bi:t=Cresc.	!	!	!	!
4FF#X)	8c#XJ)	[4.d	([4.dd	.
8EE	.	.	.	.
(8DDL	.	8dL]	(8ddL]	.
8D	.	8d)	8f#X)	.
8C#XJ	.	8eJ)	8f#'J	.
4BBn	.	.	.	.
8AA#X)	.	.	.	.
=94	=94	=94	=94	=94
.	(4Bn~	.	.	.
.	8B')	.	.	.
.	(4.A	.	.	.
.	.	(<4d	(4f#X	.
.	4.G)	.	.	.
.	.	.	16qqg/LL	.
.	.	.	16qqf#/	.
.	.	.	16qqe/	.
.	.	.	16qqf#/JJ	.
.	.	8e	16aLL	.
.	.	.	16gJJ)	.
(4BBn	.	4.d)	[4.f#	.
8GG)	.	.	.	.
[4.AAn	.	4.c#X	8.f#L]	.
.	.	.	(16eL	[
.	.	.	16.bn	>
.	.	.	32aJJk)	.
4.AA]	.	.	.	.
=95	=95	=95	=95	=95
.	16DLL	.	.	.
.	16D	.	.	.
.	16D	.	.	.
.	16D	.	.	.
.	16D	.	.	.
.	16DJJ	.	.	.
.	16FLL	.	.	.
.	16F	.	.	.
.	16F	.	.	.
.	16F	.	.	.
*	*	*^	*	*
.	16F	16dLL	4ryy	4d	.
.	16FJJ	16AJJ 16d	.	.	.
.	4.E 4.G	16ALL 16d	.	.	.
.	.	16AJJ 16d	.	.	.
*	*	*v	*v	*	*
.	.	16ALL 16d	8r	.
.	.	16AJJ 16d	.	.
4D	.	4.A 4.d	4r	.
8r	.	.	8r	.
4r	.	4.c#X	4r	.
8r	.	.	8r	.
4r	.	.	.	.
8r	.	.	.	.
*clefC4	*	*	*	*
=96	=96	=96	=96	=96
.	4.D	.	.	.
.	4.F	.	.	.
.	.	4.f	[2.a	.
.	4.E 4.G	.	.	.
[2.A	.	4.A 4.d	.	.
!	!LO:TX:b:Bi:t=Cresc.	!	!	!
.	.	4.c#X	4a_	.
!	!	!	!LO:TX:b:Bi:t=Cresc.	!
.	.	.	16aLL]	.
.	.	.	112aLL	.
.	.	.	112b-	.
.	.	.	112cc	.
.	.	.	112dd	.
.	.	.	112ee	.
.	.	.	112ff	.
.	.	.	112ggJJJJ	.
!	!	!LO:TX:b:Bi:t=Cresc.	!	!
4.A_	.	.	2688%59r	.
=97	=97	=97	=97	=97
!LO:TX:b:Bi:t=Cresc.	!	!	!	!
.	4.D	.	.	.
.	4.F	.	.	.
.	.	4.f	.	.
.	.	.	[2.aa	.
.	4.A	.	.	.
4.A]	.	4.A 4.d	.	.
(4.d	.	4.c#X	.	.
.	.	.	4aa_	.
.	.	.	16aaLL]	<
.	.	.	128aaLLL	.
.	.	.	128bbn	.
.	.	.	128ccc#X	.
.	.	.	128ddd	.
.	.	.	128eee	.
.	.	.	128fff	[
4.e)	.	.	.	.
.	.	.	128gggJJJJJ	.
.	.	.	128r	.
=98	=98	=98	=98	=98
.	4.D	.	.	.
.	4.D'	.	.	.
.	.	4.A 4.f	.	.
.	.	.	4aaa	.
.	4.D	.	.	.
.	.	.	8r	ff
(>4.f	.	4.A 4.f	.	.
.	.	.	4d	.
.	.	.	8r	.
4f)	.	4.B- 4.f	.	.
.	.	.	4r	.
16eLL	.	.	.	.
.	.	.	8r	.
16dJJ)	.	.	.	.
(16dLL	.	.	.	.
32eL	.	.	.	.
32dJ	.	.	.	.
16c#X	.	.	.	.
16d	.	.	.	.
16f	.	.	.	.
16eJJ)	.	.	.	.
=99	=99	=99	=99	=99
.	4.E 4.G	.	.	.
.	4.E 4.G	.	.	.
.	.	(<16B-	.	.
.	.	.	(32ggLLL	f
.	.	.	32ff#X	.
.	.	32gLLL	.	.
.	.	.	32gg	.
.	.	32f#X	.	.
.	.	.	32ff#	.
.	4.E 4.G	32g	.	.
.	.	.	32gg	.
.	.	32f#	.	.
.	.	.	32ff#	.
.	.	32g	.	.
.	.	.	32gg	.
.	.	32aJJ	.	.
.	.	.	32aaJJ	.
.	.	8bn'J)	.	.
.	.	.	8bb-'J)	.
(>4.d	.	32gLLL	.	.
.	.	.	(32ggLLL	.
.	.	32f#	.	.
.	.	.	32ff#	.
.	.	32g	.	.
.	.	.	32gg	.
.	.	32f#	.	.
.	.	.	32ff#	.
.	.	32g	.	.
.	.	.	32gg	.
.	.	32f#	.	.
.	.	.	32ff#	.
.	.	32g	.	.
.	.	.	32gg	.
.	.	(<32aJJ	.	.
.	.	.	32aaJJ	.
.	.	8b'J)	.	.
.	.	.	8bb-'J)	.
[4.c#X)	.	32gLLL	.	.
.	.	.	(32ggLLL	.
.	.	32f#	.	.
.	.	.	32ff#	.
.	.	32g	.	.
.	.	.	32gg	.
.	.	32a	.	.
.	.	.	32aa	.
.	.	32b	.	.
.	.	.	32bb-	.
.	.	32a	.	.
.	.	.	32aa	.
.	.	32b	.	.
.	.	.	32bb-	.
.	.	32a	.	.
.	.	.	32aa	.
.	.	32g	.	.
.	.	.	32gg	.
.	.	32f#	.	.
.	.	.	32ffn	.
.	.	32e-X	.	.
.	.	.	32ee	.
.	.	32d'JJJ)	.	.
.	.	.	32ddJJJ)	.
8c#L]	.	.	.	.
(16c#L	.	.	.	.
16d	.	.	.	.
16e	.	.	.	.
16fJJ)	.	.	.	.
=100	=100	=100	=100	=100
.	4.E 4.G	.	.	.
!	!LO:TX:b:Bi:t=Cresc.	!	!	!
.	4.E 4.G	.	.	.
.	.	8c#X'L	.	.
.	.	.	8cc#X	p
.	4.E 4.G	8gg'	.	.
.	.	.	8r	.
.	.	8ee'J	.	.
.	.	.	4r	.
!	!	!LO:TX:b:Bi:t=Cresc.	!	!
(>4.g	.	8cc#X'L	.	.
.	.	8g'	.	.
.	.	.	8r	.
.	.	8e'J	.	.
.	.	.	4r	.
!LO:TX:b:Bi:t=Cresc.	!	!	!	!
8g)	.	8c#'L	.	.
32qqa/	.	.	.	.
16gLL	.	8G'	.	.
.	.	.	8r	.
16f#X	.	.	.	.
16g	.	8bn'J	.	.
16aJJ)	.	.	.	.
(4b-	.	.	.	.
8c#X)	.	.	.	.
=101	=101	=101	=101	=101
.	4.F 4.A	.	.	.
.	4.F 4.A	.	.	.
.	.	.	(>32aaLLL	f
.	.	.	32gg#X	.
.	.	.	32aa	.
.	.	.	32gg#	.
.	.	(32aLLL	.	.
.	.	.	32aa	.
.	.	32g#X	.	.
.	.	.	32ggn	.
.	.	32a	.	.
.	.	.	32ff	.
.	.	32g#JJJ	.	.
.	.	.	32eeJJ	.
.	4.F 4.A	32aLLL	.	.
.	.	.	8dd'J)	.
.	.	32gn	.	.
.	.	32f#X	.	.
.	.	32eJJJ	.	.
.	.	8d')	.	.
.	.	.	(32aaLLL	.
.	.	.	32gg#X	.
.	.	.	32aa	.
.	.	.	32gg#	.
(>4.e	.	32aLLL	.	.
.	.	.	32aa	.
.	.	32g#X	.	.
.	.	.	32ggn	.
.	.	32a	.	.
.	.	.	32ff	.
.	.	32g#JJJ	.	.
.	.	.	32eeJJ	.
.	.	32aLLL	.	.
.	.	.	8dd'J)	.
.	.	32gn	.	.
.	.	32f#	.	.
.	.	32eJJJ	.	.
.	.	8d')	.	.
.	.	.	(32aaLLL	.
.	.	.	32gg#X	.
.	.	.	32aa	.
.	.	.	32gg#	.
[4.d)	.	32aLLL	.	.
.	.	.	32aa	.
.	.	32g#X	.	.
.	.	.	32ggn	.
.	.	32a	.	.
.	.	.	32ff	.
.	.	32g#JJJ	.	.
.	.	.	32ee	.
.	.	32aLLL	.	.
.	.	.	32dd	.
.	.	32gn	.	.
.	.	.	32ee	.
.	.	32f#	.	.
.	.	.	32ff	.
.	.	32eJJJ	.	.
.	.	.	32ddJJJ)	.
.	.	32dLLL	.	.
.	.	32e	.	.
.	.	32f#)	.	.
.	.	32dJJJ	.	.
8.d]	.	.	.	.
*clefF4	*	*	*	*
8FF'L	.	.	.	.
8FF'J	.	.	.	.
=102	=102	=102	=102	=102
.	4B-	.	.	.
.	8r	.	.	.
.	4r	.	.	.
.	.	.	(>32ee-XLLL	f
.	.	.	32dd	.
.	.	.	32ee-	.
.	.	.	32ff	.
.	8r	4G 4e-X	.	.
.	.	.	32gg	.
.	.	.	32ff#X	.
.	.	.	32gg	.
.	.	.	32aaJJ	.
.	4r	.	.	.
.	.	.	8bb-'J)	.
.	.	8r	.	.
.	.	.	4r	.
.	8r	4r	.	.
4GG~	.	.	.	.
.	.	.	8r	.
.	.	8r	.	.
.	.	.	4r	.
8r	.	.	.	.
.	.	4r	.	.
4r	.	.	.	.
.	.	.	8r	.
.	.	8r	.	.
8r	.	.	.	.
4r	.	.	.	.
8r	.	.	.	.
=103	=103	=103	=103	=103
.	4c 4e-X	.	.	.
.	8r	.	.	.
.	4r	.	.	.
.	.	.	(>32ff#X'LLL	f
.	.	.	32ee	.
.	.	.	32ff#	.
.	.	.	32gg	.
.	8r	4A 4f#X	.	.
.	.	.	32aa	.
.	.	.	32gg	.
.	.	.	32aa	.
.	.	.	32bb-JJ	.
.	4r	.	.	.
.	.	.	8ccc'J)	.
.	.	8r	.	.
.	.	.	4r	.
.	8r	4r	.	.
4AA~	.	.	.	.
.	.	.	8r	.
.	.	8r	.	.
.	.	.	4r	.
8r	.	.	.	.
.	.	4r	.	.
4r	.	.	.	.
.	.	.	8r	.
.	.	8r	.	.
8r	.	.	.	.
4r	.	.	.	.
8r	.	.	.	.
=104	=104	=104	=104	=104
.	4B- 4d	.	.	.
.	8r	.	.	.
.	4r	.	.	.
.	.	.	(>32ggLLL	f
.	.	.	32ff#X	.
.	.	.	32gg	.
.	.	.	32aa	.
.	8r	4B- 4g	.	.
.	.	.	32bb-	.
.	.	.	32aa	.
.	.	.	32bb-	.
.	.	.	32cccJJ	.
.	4r	.	.	.
.	.	.	8dddJ)	.
.	.	8r	.	.
.	.	.	4r	.
.	8r	4r	.	.
4BB-~	.	.	.	.
.	.	.	8r	.
.	.	8r	.	.
.	.	.	4r	.
8r	.	.	.	.
.	.	4r	.	.
4r	.	.	.	.
.	.	.	8r	.
.	.	8r	.	.
8r	.	.	.	.
4r	.	.	.	.
8r	.	.	.	.
=105	=105	=105	=105	=105
.	16BnLL	.	.	.
.	16B	.	.	.
.	16B	.	.	.
.	16B	.	.	.
.	16B	.	.	.
.	16BJJ	.	.	.
.	4.B	.	.	.
.	.	.	2.fff	ff
.	.	[4.d 4.dd	.	.
.	4.G	.	.	.
.	.	4.d] 4.dd	.	.
16GG#XLL	.	.	.	.
16GG#	.	.	.	.
16GG#	.	.	.	.
16GG#	.	.	.	.
.	.	.	4.c#X	p
16GG#	.	.	.	.
16GG#JJ	.	(16B-LL	.	.
4.GG#	.	16A)	.	.
.	.	(16A'	.	.
.	.	16A')	.	.
.	.	16A	.	.
.	.	16AJJ	.	.
4.AA	.	.	.	.
=106	=106	=106	=106	=106
.	(<8FL	.	.	.
.	(<8A~	.	.	.
.	8A~J)	.	.	.
.	8A~L	.	.	.
.	(<8A~	.	.	.
.	.	.	4d	.
.	8A~J)	4A	.	.
.	8A~L	.	.	.
.	.	.	8r	.
.	8A~	8r	.	.
.	.	.	4r	.
.	8A~J)	4r	.	.
4DD	.	.	.	.
.	.	.	8r	.
.	.	8r	.	.
.	.	.	16dLL	.
8r	.	.	.	.
.	.	.	16f	.
.	.	4r	.	.
.	.	.	16a	.
4r	.	.	.	.
.	.	.	16dd	.
.	.	.	16ee	.
.	.	.	16ffJJ	.
.	.	8r	.	.
8r	.	.	.	.
4r	.	.	.	.
8r	.	.	.	.
=107	=107	=107	=107	=107
.	(8c#XL	.	.	.
.	8A)	.	.	.
.	8AJ	.	.	.
.	8A~L	.	.	.
.	(<8A~	.	.	.
.	.	.	4ff	.
.	8A~J)	(16gLL	.	.
.	.	16b-	.	.
.	8A~L	16cc#X	.	.
.	.	.	8ee	>
.	.	16b-	.	.
.	8A~	16cc#	.	.
.	.	.	4dd	]
.	.	16gJJ)	.	.
.	8A~J)	4f	.	.
(4.AA	.	.	.	.
.	.	.	8r	.
.	.	8r	.	.
.	.	.	(24dLL	.
.	.	.	24f	.
.	.	.	24aJJ	.
.	.	4r	.	.
.	.	.	24cc#XLL	.
4D)	.	.	.	.
.	.	.	24dd	.
.	.	.	24eeJJ	.
.	.	.	32ffLLL	.
.	.	.	48gg#X	.
.	.	.	48aa	.
.	.	.	48ff	.
.	.	.	32ddJJJ)	.
.	.	8r	.	.
8r	.	.	.	.
4r	.	.	.	.
8r	.	.	.	.
=108	=108	=108	=108	=108
.	(8c#XL	.	.	.
.	8A)	.	.	.
.	8AJ	.	.	.
.	8A~L	.	.	.
.	8A~	.	.	.
.	.	.	(>4ff	.
.	8A~J)	(16gLL	.	.
.	.	16b-	.	.
.	(8AL	16cc#X	.	.
.	.	.	8ee	>
.	.	16b-	.	.
.	8F	16cc#	.	.
.	.	.	4dd)	]
.	.	16gJJ)	.	.
.	8DJ)	8fL	.	.
(<4.AA	.	.	.	.
.	.	(8a'	.	.
.	.	.	8r	.
.	.	8a'J)	.	.
.	.	.	(24dLL	.
.	.	.	24f	.
.	.	.	24aJJ	.
.	.	(8aL	.	.
.	.	.	24cc#XLL	.
4D)	.	.	.	.
.	.	.	24dd	.
.	.	.	24eeJJ	.
.	.	8f	.	.
.	.	.	24ff#XLL	.
.	.	.	24gg#X	.
.	.	.	24aaJJ)	.
.	.	8dJ)	.	.
8r	.	.	.	.
4r	.	.	.	.
8r	.	.	.	.
=109	=109	=109	=109	=109
.	[2.E [2.G	.	.	.
.	.	.	(>16bb-LL	<
.	.	.	16gg	.
.	.	[2.c#X	.	.
.	.	.	16ee	.
.	.	.	16cc#X	.
.	4.E] 4.G]	.	.	.
.	.	.	16gg	.
.	.	.	16eeJJ)	[
.	.	.	(16cc#LL	>
.	.	.	16b-J	.
.	.	.	[8ee	.
[2.AA	.	.	.	.
.	.	.	32eeLL]	.
.	.	.	32cc#	.
.	.	.	32b-	.
.	.	.	32gJJJ	.
.	.	.	32cc#LLL	[
.	.	.	32b-	.
.	.	.	32g	.
.	.	.	32eJJJ	.
.	.	4.c#]	.	.
.	.	.	[8b-L	.
.	.	.	32b-LL]	.
.	.	.	32g	.
.	.	.	32e	.
.	.	.	32c#XJJJ)	.
4.AA]	.	.	.	.
=110	=110	=110	=110	=110
.	4F	.	.	.
.	8r	.	.	.
.	4F	.	.	.
.	.	.	4d	pp
.	8r	4A	.	.
.	4r	.	.	.
.	.	.	8r	.
.	.	8r	.	.
.	.	.	4d	.
.	8r	4A	.	.
4DD	.	.	.	.
.	.	.	8r	.
.	.	8r	.	.
.	.	.	4r	.
8r	.	.	.	.
.	.	4r	.	.
4D	.	.	.	.
.	.	.	8r	.
.	.	8r	.	.
8r	.	.	.	.
4r	.	.	.	.
8r	.	.	.	.
==	==	==	==	==
*-	*-	*-	*-	*-
!!!system-decoration: [(s1,s2,s3,s4)]
!!!RDF**kern: > = above
!!!RDF**kern: < = below
